Hatter-kde/actions/22/draw-ellipse.svg

<?xml version="1.0" encoding="UTF-8"?>
<svg viewBox="0 0 22 22" xmlns="http://www.w3.org/2000/svg">
 <defs id="defs3051">
  <style id="current-color-scheme" type="text/css">.ColorScheme-Text {
        color:#363636;
      }</style>
 </defs>
 <path class="ColorScheme-Text" d="m11 5a8 6 0 0 0-8 6 8 6 0 0 0 8 6 8 6 0 0 0 8-6 8 6 0 0 0-8-6m0 1a7 5 0 0 1 7 5 7 5 0 0 1-7 5 7 5 0 0 1-7-5 7 5 0 0 1 7-5" fill="currentColor"/>
</svg>

<svg xmlns="http://www.w3.org/2000/svg" viewBox="0 0 22 22">
  <defs id="defs3051">
    <style type="text/css" id="current-color-scheme">
      .ColorScheme-Text {
        color:#363636;
      }
      </style>
  </defs>
 <path 
    style="fill:currentColor;fill-opacity:1;stroke:none" 
	d="M11 5A8 6 0 0 0 3 11 8 6 0 0 0 11 17 8 6 0 0 0 19 11 8 6 0 0 0 11 5M11 6A7 5 0 0 1 18 11 7 5 0 0 1 11 16 7 5 0 0 1 4 11 7 5 0 0 1 11 6"
    class="ColorScheme-Text"
    />  
</svg>
